X:687
T:Josephine Marsh's
S:Nuala Kennedy, Tinto 5/7/04
Z:Nigel Gatherer
M:2/4
L:1/8
K:Bm
dB bB | de f>e | dB  bB       | c/B/A/c/ ef/e/ |
dB bB | de f2  | d>e f/e/d/c/ | B2       B2   :|
ff b>a | fe f2 | dB  bB       | c/B/A/c/ e2    |
ff b>a | fe f2 | d>e f/e/d/c/ | B2       B2   :|
<end>
<start>
